static/images/icons/business.svg

<?xml version="1.0" encoding="UTF-8" standalone="no"?>
<svg width="52px" height="52px" viewBox="0 0 52 52" version="1.1" xmlns="http://www.w3.org/2000/svg" xmlns:xlink="http://www.w3.org/1999/xlink" xmlns:sketch="http://www.bohemiancoding.com/sketch/ns">
    <!-- Generator: Sketch 3.2.1 (9971) - http://www.bohemiancoding.com/sketch -->
    <title>business</title>
    <desc>Created with Sketch.</desc>
    <defs></defs>
    <g id="Page-1" stroke="none" stroke-width="1" fill="none" fill-rule="evenodd" sketch:type="MSPage">
        <g id="business" sketch:type="MSLayerGroup" transform="translate(14.000000, 14.000000)" fill="#F2FAFF">
            <g id="Main" sketch:type="MSShapeGroup">
                <g id="Make-7">
                    <g id="Start-from-Scratch-+-Choosing-this-option-4">
                        <g id="business">
                            <path d="M12.3214286,0.2857143 L24.6428571,5.2142857 L24.6428571,6.8571429 L23,6.8571429 C23,7.0796142 22.9122963,7.2721346 22.7368862,7.4347098 C22.5614761,7.597285 22.3539819,7.6785714 22.1143973,7.6785714 L2.5284598,7.6785714 C2.2888753,7.6785714 2.0813811,7.597285 1.905971,7.4347098 C1.7305609,7.2721346 1.6428571,7.0796142 1.6428571,6.8571429 L0,6.8571429 L0,5.2142857 L12.3214286,0.2857143 L12.3214286,0.2857143 Z M3.2857143,8.5 L6.5714286,8.5 L6.5714286,18.3571429 L8.2142857,18.3571429 L8.2142857,8.5 L11.5,8.5 L11.5,18.3571429 L13.1428571,18.3571429 L13.1428571,8.5 L16.4285714,8.5 L16.4285714,18.3571429 L18.0714286,18.3571429 L18.0714286,8.5 L21.3571429,8.5 L21.3571429,18.3571429 L22.1143973,18.3571429 C22.3539819,18.3571429 22.5614761,18.4384292 22.7368862,18.6010045 C22.9122963,18.7635797 23,18.9561001 23,19.1785714 L23,20 L1.6428571,20 L1.6428571,19.1785714 C1.6428571,18.9561001 1.7305609,18.7635797 1.905971,18.6010045 C2.0813811,18.4384292 2.2888753,18.3571429 2.5284598,18.3571429 L3.2857143,18.3571429 L3.2857143,8.5 L3.2857143,8.5 Z M23.7572545,20.8214286 C23.996839,20.8214286 24.2043332,20.902715 24.3797433,21.0652902 C24.5551534,21.2278654 24.6428571,21.4203858 24.6428571,21.6428571 L24.6428571,23.2857143 L0,23.2857143 L0,21.6428571 C0,21.4203858 0.0877037,21.2278654 0.2631138,21.0652902 C0.4385239,20.902715 0.6460181,20.8214286 0.8856027,20.8214286 L23.7572545,20.8214286 L23.7572545,20.8214286 Z" id=""></path>
                        </g>
                    </g>
                </g>
            </g>
        </g>
    </g>
</svg>

<?xml version="1.0" encoding="utf-8"?>
<!DOCTYPE svg PUBLIC "-//W3C//DTD SVG 1.1//EN" "http://www.w3.org/Graphics/SVG/1.1/DTD/svg11.dtd">
<svg version="1.1" id="Layer_1" xmlns:sketch="http://www.bohemiancoding.com/sketch/ns"
	 xmlns="http://www.w3.org/2000/svg" xmlns:xlink="http://www.w3.org/1999/xlink" x="0px" y="0px" viewBox="0 0 52 52"
	 enable-background="new 0 0 52 52" xml:space="preserve">
<g transform="translate(14.000000, 14.000000)">
  <path id="_xF19C_" fill="#F1F1F5" d="M12.3,0.3l12.3,4.9v1.6H23c0,0.2-0.1,0.4-0.3,0.6c-0.2,0.2-0.4,0.2-0.6,0.2H2.5
    c-0.2,0-0.4-0.1-0.6-0.2C1.7,7.3,1.6,7.1,1.6,6.9H0V5.2L12.3,0.3L12.3,0.3z M3.3,8.5h3.3v9.9h1.6V8.5h3.3v9.9h1.6V8.5h3.3v9.9
    h1.6V8.5h3.3v9.9h0.8c0.2,0,0.4,0.1,0.6,0.2c0.2,0.2,0.3,0.4,0.3,0.6V20H1.6v-0.8c0-0.2,0.1-0.4,0.3-0.6
    c0.2-0.2,0.4-0.2,0.6-0.2h0.8V8.5L3.3,8.5z M23.8,20.8c0.2,0,0.4,0.1,0.6,0.2c0.2,0.2,0.3,0.4,0.3,0.6v1.6H0v-1.6
    c0-0.2,0.1-0.4,0.3-0.6s0.4-0.2,0.6-0.2H23.8L23.8,20.8z"/>
</g>
</svg>
